X: 391
T: Red Cross Knight
%R: march, reel
Z: 2014 John Chambers <jc:trillian.mit.edu>
B: Preston "Twenty four Country Dances for the Year 1800" p.176 #1
F: http://www.vwml.org/browse/browse-collections-dance-tune-books/browse-prestons1800# 2014-8-10
N: The 2nd strain has final repeat but no initial repeat; fixed by adding initial repeat.
M: 2/4
L: 1/8
K: F
|:\
f2cA | f2cB | AA GG | F4 |\
f2 de/f/ | g2c2 | dfed |[1 c4 :|[2 c3c |]
|:\
cdef | gbag | fgfa | c3c |\
d2cB | BAc2 | dfeg | f4 :|
% - - - - - - - - - - - - - - - - - - - - - - - - -
%%begintext align
%% Hands across half round; back again
%% down the middle up again Allemand
%%endtext
% - - - - - - - - - - - - - - - - - - - - - - - - -

%%sep 1 1 500
%%sep 1 1 500
